X:1490
T:Birmingham Hornpipe
M:4/4
L:1/8
K:D
AG|F2 F2 FAdA|GFED CEAG|FAdf gfed|edcB AGFE|!
F2 F2 FAdA|GFED CEAG|FAdA BGEC|D2 F2 D2:|!
|:f2|efgf edcA|defg a2 a2|efgf edcA|defd ABAG|!
F2 F2 FAdA|GFED CEAG|FAdA Bgec|d2 f2 d2:|!


